X:1
T:Maryland, My Maryland (1)
M:3/4
L:1/4
Q:1/2=50
K:D
 z4A | d3/4d/4de | f3/4f/4fz | e3/4f/4gc | e3/4d/4dA |  d3/4d/4de |
 f3/4f/4fz | e3/4f/4gc | e3/4d/4d z/2a/2 | a/2f/2b3/2a/2 | a3/4g/4g z/2g/2 | g/2e/2a3/2g/2 |
 g3/4f/4fA | d3/4d/4de | f3/4f/4fz | e3/4f/4gc |e3/4d/4d |]
